X: 1
T: Inverquharity Castle
C: Angus Cameron
R: strathspey
Z: 2006 John Chambers <jc:trillian.mit.edu>
M: C
L: 1/16
K: G
D | "G"G3A Bd3 "Am"c3A e4  | "G"d3g (3B2A2G2 "D7"FD3 D3C | "G"B,3D G3B "Am"C3E A3c | "G"B3d  "D7"ABcd "G"BG3 G3 :|
e | "G"dg3 b3g     d3g B3d | "Am"ce3 A3c     "D7"F3A D3e | "G"dg3  b3g     d3g B3d | "C"efge "D7"f3a  "G"bg3 g3 ||
e | "G"dg3 b3g     d3g B3d | "Am"ce3 A3c     "D7"F3A D3C | "G"B,3D G3B "Am"C3E A3c | "G"B3d  "D7"ABcd "G"BG3 G3 |]
